packages/astro-components-stencil/src/icons/perm-contact-calendar.svg

<svg xmlns="http://www.w3.org/2000/svg" viewBox="0 0 24 24"><g xmlns="http://www.w3.org/2000/svg" id="perm-contact-calendar" fill-rule="nonzero">
            <path d="M19 3h-1V2c0-.55-.45-1-1-1s-1 .45-1 1v1H8V2c0-.55-.45-1-1-1s-1 .45-1 1v1H5a2 2 0 00-2 2v14c0 1.1.9 2 2 2h14c1.1 0 2-.9 2-2V5c0-1.1-.9-2-2-2zm-7 3c1.66 0 3 1.34 3 3s-1.34 3-3 3-3-1.34-3-3 1.34-3 3-3zm6 12H6v-1c0-2 4-3.1 6-3.1s6 1.1 6 3.1v1z"/>
        </g></svg>

<svg width="24" height="24" viewBox="0 0 24 24" fill="none" xmlns="http://www.w3.org/2000/svg">
<path fill-rule="evenodd" clip-rule="evenodd" d="M19 3H18V2C18 1.45 17.55 1 17 1C16.45 1 16 1.45 16 2V3H8V2C8 1.45 7.55 1 7 1C6.45 1 6 1.45 6 2V3H5C3.89 3 3 3.9 3 5V19C3 20.1 3.9 21 5 21H19C20.1 21 21 20.1 21 19V5C21 3.9 20.1 3 19 3ZM12 6C13.66 6 15 7.34 15 9C15 10.66 13.66 12 12 12C10.34 12 9 10.66 9 9C9 7.34 10.34 6 12 6ZM6 17V18H18V17C18 15 14 13.9 12 13.9C10 13.9 6 15 6 17Z" fill="black"/>
</svg>
